packages/sources/assets/src/assets/flag-cas.svg

<svg width="28" height="20" viewBox="0 0 28 20" fill="none" xmlns="http://www.w3.org/2000/svg">
<rect width="28" height="20" rx="2" fill="white"/>
<mask id="mask0_503_3945" style="mask-type:alpha" maskUnits="userSpaceOnUse" x="0" y="0" width="28" height="20">
<rect width="28" height="20" rx="2" fill="white"/>
</mask>
<g mask="url(#mask0_503_3945)">
<rect width="28" height="20" fill="#19BFBF"/>
<path fill-rule="evenodd" clip-rule="evenodd" d="M5.4824 8.36851C5.40007 8.53317 5.46682 8.7334 5.63148 8.81573L7.70186 9.85092C7.86652 9.93325 7.93326 10.1335 7.85093 10.2981L7.4824 11.0352C7.40007 11.1998 7.19985 11.2666 7.03519 11.1843L6.07038 10.7018C6.0241 10.6787 5.97306 10.6667 5.92131 10.6667H4.33333C4.14924 10.6667 4 10.8159 4 11V11.7597C4 11.9032 4.09181 12.0306 4.22792 12.076L5.48833 12.4961C5.72341 12.5745 5.79384 12.8728 5.61863 13.048L5.43096 13.2357C5.36845 13.2982 5.33333 13.383 5.33333 13.4714V13.9459C5.33333 13.9817 5.33911 14.0173 5.35044 14.0513L5.95634 15.869C5.98429 15.9529 6.04442 16.0222 6.12349 16.0617L7.11844 16.5592C7.24677 16.6234 7.40176 16.5982 7.50322 16.4968L8.66667 15.3333L9.00631 14.9937C9.16719 14.8328 9.12318 14.5616 8.91968 14.4598L8.18426 14.0921C8.07133 14.0357 8 13.9202 8 13.794V13.7602C8 13.5434 8.2038 13.3843 8.41418 13.4369L10.4142 13.9369C10.5626 13.974 10.6667 14.1073 10.6667 14.2602V15.2324C10.6667 15.2982 10.6861 15.3625 10.7226 15.4173L11.901 17.1849C11.9629 17.2776 12.0669 17.3333 12.1784 17.3333H12.441C12.5773 17.3333 12.6999 17.2503 12.7505 17.1238L13.7243 14.6892C13.8311 14.4221 14.2033 14.4067 14.332 14.6639L14.6425 15.2849C14.6585 15.317 14.6796 15.3462 14.7049 15.3716L15.9618 16.6284C15.9871 16.6537 16.0163 16.6748 16.0484 16.6908L16.8509 17.0921C17.0726 17.2029 17.3333 17.0418 17.3333 16.794V16.1381C17.3333 16.0497 17.2982 15.9649 17.2357 15.9024L16.9024 15.569C16.7722 15.4389 16.7722 15.2278 16.9024 15.0976L17.2357 14.7643C17.2982 14.7018 17.383 14.6667 17.4714 14.6667H18.588C18.6397 14.6667 18.6908 14.6546 18.737 14.6315L19.8157 14.0921C19.9287 14.0357 20 13.9202 20 13.794V12.8047C20 12.7163 19.9649 12.6315 19.9024 12.569L19.569 12.2357C19.4389 12.1055 19.4389 11.8945 19.569 11.7643L20.3396 10.9937C20.5005 10.8328 20.7717 10.8768 20.8735 11.0803L21.2509 11.8352C21.3014 11.9362 21.4047 12 21.5176 12C21.7392 12 21.8834 11.7667 21.7843 11.5685L21.4824 10.9648C21.4001 10.8001 21.4668 10.5999 21.6315 10.5176L22.3685 10.1491C22.5332 10.0667 22.5999 9.86651 22.5176 9.70185L22.0617 8.79015C22.0222 8.71108 21.9529 8.65095 21.869 8.62299L20.5117 8.17055C20.2766 8.09219 20.2062 7.79383 20.3814 7.61862L21.2357 6.76429C21.2982 6.70178 21.383 6.66666 21.4714 6.66666H23.1273C23.2536 6.66666 23.369 6.59532 23.4255 6.48239L23.7816 5.77014C23.8866 5.56017 23.7474 5.31036 23.5136 5.28911L17.3754 4.73109C17.094 4.7055 16.9701 4.36326 17.1699 4.16342L17.2357 4.09762C17.2982 4.03511 17.3333 3.95032 17.3333 3.86192V2.99999C17.3333 2.81589 17.1841 2.66666 17 2.66666H14.1381C14.0497 2.66666 13.9649 2.70178 13.9024 2.76429L12.0653 4.60137C12.0226 4.64409 11.969 4.6744 11.9104 4.68905L9.33333 5.33332L6.78629 5.97008C6.7091 5.98938 6.62755 5.98043 6.55638 5.94484L6.05311 5.69321C5.7875 5.5604 5.4939 5.81504 5.58781 6.09676L5.95634 7.20234C5.98429 7.28621 5.97779 7.37775 5.93825 7.45682L5.4824 8.36851ZM14.6667 16.6667C14.6667 17.0348 14.3682 17.3333 14 17.3333C13.6318 17.3333 13.3333 17.0348 13.3333 16.6667C13.3333 16.2985 13.6318 16 14 16C14.3682 16 14.6667 16.2985 14.6667 16.6667ZM10 10.6667C10.3682 10.6667 10.6667 10.3682 10.6667 9.99999C10.6667 9.6318 10.3682 9.33332 10 9.33332C9.63181 9.33332 9.33333 9.6318 9.33333 9.99999C9.33333 10.3682 9.63181 10.6667 10 10.6667ZM22.6667 12.6667V13.3333L21.9024 14.0976C21.6924 14.3076 21.8411 14.6667 22.1381 14.6667H22.4607C22.5869 14.6667 22.7023 14.5953 22.7588 14.4824L23.3333 13.3333L22.6667 12.6667ZM22.6667 12.6667L23.0352 12.4824C23.2755 12.3622 23.19 12 22.9213 12C22.7807 12 22.6667 12.114 22.6667 12.2546V12.6667Z" fill="white"/>
</g>
</svg>

<svg width="28" height="20" fill="none" xmlns="http://www.w3.org/2000/svg"><rect width="28" height="20" rx="2" fill="#fff"/><mask id="a" style="mask-type:alpha" maskUnits="userSpaceOnUse" x="0" y="0" width="28" height="20"><rect width="28" height="20" rx="2" fill="#fff"/></mask><g mask="url(#a)"><path fill="#19BFBF" d="M0 0h28v20H0z"/><path fill-rule="evenodd" clip-rule="evenodd" d="M5.482 8.369a.333.333 0 0 0 .15.447l2.07 1.035a.333.333 0 0 1 .149.447l-.369.737a.333.333 0 0 1-.447.15l-.965-.483a.334.334 0 0 0-.149-.035H4.333A.333.333 0 0 0 4 11v.76c0 .143.092.27.228.316l1.26.42a.333.333 0 0 1 .13.552l-.187.188a.333.333 0 0 0-.098.235v.475a.34.34 0 0 0 .017.105l.606 1.818a.333.333 0 0 0 .167.193l.995.497a.333.333 0 0 0 .385-.062l1.164-1.164.34-.34a.333.333 0 0 0-.087-.533l-.736-.368A.333.333 0 0 1 8 13.794v-.034c0-.217.204-.376.414-.323l2 .5c.149.037.253.17.253.323v.972c0 .066.02.13.056.185l1.178 1.768a.334.334 0 0 0 .277.148h.263a.333.333 0 0 0 .31-.21l.973-2.434a.333.333 0 0 1 .608-.025l.31.62a.334.334 0 0 0 .063.088l1.257 1.256a.332.332 0 0 0 .086.063l.803.401c.222.11.482-.05.482-.298v-.656a.333.333 0 0 0-.097-.236l-.334-.333a.333.333 0 0 1 0-.471l.334-.334a.333.333 0 0 1 .235-.097h1.117a.333.333 0 0 0 .149-.035l1.079-.54a.333.333 0 0 0 .184-.298v-.99a.333.333 0 0 0-.098-.235l-.333-.333a.333.333 0 0 1 0-.472l.77-.77a.333.333 0 0 1 .535.086l.377.755a.298.298 0 0 0 .533-.267l-.302-.603a.333.333 0 0 1 .15-.447l.736-.369a.333.333 0 0 0 .15-.447l-.456-.912a.333.333 0 0 0-.193-.167l-1.357-.452a.333.333 0 0 1-.13-.552l.854-.855a.333.333 0 0 1 .235-.097h1.656a.333.333 0 0 0 .299-.185l.356-.712a.333.333 0 0 0-.268-.48l-6.139-.559a.333.333 0 0 1-.205-.568l.066-.065a.333.333 0 0 0 .097-.236V3A.333.333 0 0 0 17 2.667h-2.862a.333.333 0 0 0-.236.097l-1.837 1.837a.333.333 0 0 1-.155.088l-2.577.644-2.547.637a.333.333 0 0 1-.23-.025l-.503-.252a.333.333 0 0 0-.465.404l.368 1.105a.333.333 0 0 1-.018.255l-.456.912Zm9.185 8.298a.667.667 0 1 1-1.334 0 .667.667 0 0 1 1.334 0Zm-4.667-6a.667.667 0 1 0 0-1.334.667.667 0 0 0 0 1.334Zm12.667 2v.666l-.765.765c-.21.21-.06.569.236.569h.323a.333.333 0 0 0 .298-.185l.574-1.149-.666-.666Zm0 0 .368-.185c.24-.12.155-.482-.114-.482a.255.255 0 0 0-.254.255v.412Z" fill="#fff"/></g></svg>
